X:1
T:Farmors brudpolska
S:efter Gyris Anders
Z:Johan Ronström 2010 efter spillefolk.dk
M:3/4
L:1/8
R:Polska
O:Älvdalen, Dalarna
K:Dm
|:A2 A^c A>^c|A2 A^c A>^c|e2 g/a/g/e/ f>g|fe d>^c d>e|f2 f/a/f/d/ e>^c|
A2 A^c A>^c|A2 A^c A>^c|e2 g/a/g/e/ f>g|fe d>^c d>e|f2 f/a/f/d/ e>^c|^c2 d4:|
|:a2 a>=b a>g|e2 g/a/g/e/ f>g|a2 a>c' a>g|e2 g/b/g/e/ f>g|fe d^c d>e|f2 f/a/f/d/ e>^c|
A2 A^c A>^c|A2 A^c A>^c|e2 g/a/g/e/ f>g|fe d>^c d>e|f2 f/a/f/d/ e>^c|^c2 d4:|

